contributed-vectors/gamepad_tester.svg

<svg xmlns="http://www.w3.org/2000/svg" xml:space="preserve" style="fill-rule:evenodd;clip-rule:evenodd;stroke-linecap:round;stroke-linejoin:round;stroke-miterlimit:1.5" viewBox="0 0 192 192"><path d="M164.5 21.5c0-5.519-4.481-10-10-10h-133c-5.519 0-10 4.481-10 10v133c0 5.519 4.481 10 10 10h133c5.519 0 10-4.481 10-10v-133Z" style="fill:#bd9aff" transform="translate(8 8)"/><path d="M57.72 83.84h5.243v24.228H57.72z" style="fill:#fff" transform="matrix(.84167 0 0 .84167 15.2 15.224)"/><path d="M57.72 83.84h5.243v24.228H57.72z" style="fill:#fff" transform="matrix(0 -.84167 .84167 0 -14.774 146.773)"/><g transform="matrix(.84167 0 0 .84167 15.2 15.224)"><circle cx="119.877" cy="91.158" r="4.842" style="fill:#fff"/><circle cx="119.877" cy="91.158" r="4.842" style="fill:#fff" transform="translate(2.371 12.069)"/><circle cx="119.877" cy="91.158" r="4.842" style="fill:#fff" transform="translate(14.426 -2.476)"/><circle cx="119.877" cy="91.158" r="4.842" style="fill:#fff" transform="translate(16.797 9.593)"/></g><path d="M162.5 77.351c0-3.234-2.796-5.86-6.24-5.86H35.74c-3.444 0-6.24 2.626-6.24 5.86v37.115c0 3.235 2.796 5.861 6.24 5.861h120.52c3.444 0 6.24-2.626 6.24-5.861V77.351Z" style="fill:none;stroke:#fff;stroke-width:5.77px" transform="matrix(.75526 0 0 .80423 23.495 18.776)"/></svg>

<?xml version="1.0" encoding="UTF-8" standalone="no"?>
<!DOCTYPE svg PUBLIC "-//W3C//DTD SVG 1.1//EN" "http://www.w3.org/Graphics/SVG/1.1/DTD/svg11.dtd">
<svg width="100%" height="100%" viewBox="0 0 192 192" version="1.1" xmlns="http://www.w3.org/2000/svg" xmlns:xlink="http://www.w3.org/1999/xlink" xml:space="preserve" xmlns:serif="http://www.serif.com/" style="fill-rule:evenodd;clip-rule:evenodd;stroke-linecap:round;stroke-linejoin:round;stroke-miterlimit:1.5;">
    <g id="Layer1">
        <g transform="matrix(1,0,0,1,8,8)">
            <path d="M164.5,21.5C164.5,15.981 160.019,11.5 154.5,11.5L21.5,11.5C15.981,11.5 11.5,15.981 11.5,21.5L11.5,154.5C11.5,160.019 15.981,164.5 21.5,164.5L154.5,164.5C160.019,164.5 164.5,160.019 164.5,154.5L164.5,21.5Z" style="fill:rgb(189,154,255);"/>
        </g>
        <g transform="matrix(0.841666,0,0,0.841666,15.2001,15.1856)">
            <g transform="matrix(1,0,0,1,0,0.0456162)">
                <rect x="57.72" y="83.84" width="5.243" height="24.228" style="fill:white;"/>
                <g transform="matrix(6.12323e-17,-1,1,6.12323e-17,-35.6129,156.296)">
                    <rect x="57.72" y="83.84" width="5.243" height="24.228" style="fill:white;"/>
                </g>
            </g>
            <g transform="matrix(1,0,0,1,0,0.0456162)">
                <circle cx="119.877" cy="91.158" r="4.842" style="fill:white;"/>
                <g transform="matrix(1,0,0,1,2.37102,12.0686)">
                    <circle cx="119.877" cy="91.158" r="4.842" style="fill:white;"/>
                </g>
                <g transform="matrix(1,0,0,1,14.4259,-2.47603)">
                    <circle cx="119.877" cy="91.158" r="4.842" style="fill:white;"/>
                </g>
                <g transform="matrix(1,0,0,1,16.7969,9.59258)">
                    <circle cx="119.877" cy="91.158" r="4.842" style="fill:white;"/>
                </g>
            </g>
            <g transform="matrix(0.897343,0,0,0.955522,9.85503,4.26583)">
                <path d="M162.5,77.351C162.5,74.117 159.704,71.491 156.26,71.491L35.74,71.491C32.296,71.491 29.5,74.117 29.5,77.351L29.5,114.466C29.5,117.701 32.296,120.327 35.74,120.327L156.26,120.327C159.704,120.327 162.5,117.701 162.5,114.466L162.5,77.351Z" style="fill:none;stroke:white;stroke-width:5.77px;"/>
            </g>
        </g>
    </g>
</svg>
